docs/.gitbook/assets/chain-icons/blast.svg

<svg xmlns="http://www.w3.org/2000/svg" width="252" height="166" viewBox="0 0 252 166" fill="none">
<path d="M197.902 81.513L237.51 61.7769L251.163 19.8713L223.857 0H42.0407L0 31.2264H213.718L202.363 66.373H116.66L108.414 92.057H194.117L170.055 166L210.204 146.129L224.533 101.79L197.632 82.0538L197.902 81.513Z" fill="#FCFC03"/>
<path d="M60.4215 134.233L85.1593 57.1807L57.7179 36.6334L16.4883 166H170.052L180.325 134.233H60.4215Z" fill="#FCFC03"/>
</svg>

<svg xmlns="http://www.w3.org/2000/svg" width="252" height="166" fill="none"><path fill="#FCFC03" d="m197.902 81.513 39.608-19.736 13.653-41.906L223.857 0H42.041L0 31.226h213.718l-11.355 35.147H116.66l-8.246 25.684h85.703L170.055 166l40.149-19.871 14.329-44.339-26.901-19.736.27-.541Z"/><path fill="#FCFC03" d="m60.422 134.233 24.737-77.052-27.441-20.548L16.488 166h153.564l10.273-31.767H60.422Z"/></svg>
